; generated by PrusaSlicer 2.1.1+win64 on 2020-02-18 at 22:30:32 UTC

; 

; external perimeters extrusion width = 0.45mm
; perimeters extrusion width = 0.45mm
; infill extrusion width = 0.45mm
; solid infill extrusion width = 0.45mm
; top infill extrusion width = 0.40mm
; first layer extrusion width = 0.42mm

M73 P0 R34
M201 X9000 Y9000 Z500 E10000 ; sets maximum accelerations, mm/sec^2
M203 X500 Y500 Z12 E120 ; sets maximum feedrates, mm/sec
M204 P2000 R1500 T2000 ; sets acceleration (P, T) and retract acceleration (R), mm/sec^2
M205 X10.00 Y10.00 Z0.20 E2.50 ; sets the jerk limits, mm/sec
M205 S0 T0 ; sets the minimum extruding and travel feed rate, mm/sec
M107
M862.3 P "MK2S" ; printer model check
M862.1 P0.4 ; nozzle diameter check
M115 U3.2.3 ; tell printer latest fw version
G90 ; use absolute coordinates
M83 ; extruder relative mode
M204 S2000 T1500 ; MK2 firmware only supports the old M204 format
M104 S215 ; set extruder temp
M140 S60 ; set bed temp
M190 S60 ; wait for bed temp
M109 S215 ; wait for extruder temp
G28 W ; home all without mesh bed level
G80 ; mesh bed leveling
G1 Y-3.0 F1000.0 ; go outside print area
G92 E0.0
G1 X60.0 E9.0  F1000.0 ; intro line
M73 P0 R34
G1 X100.0 E12.5 F1000.0 ; intro line
G92 E0.0
G21 ; set units to millimeters
G90 ; use absolute coordinates
M83 ; use relative distances for extrusion
M900 K30 ; Filament gcode
;BEFORE_LAYER_CHANGE
G92 E0.0
;0.2


G1 E-1.20000 F2700.00000
G1 Z0.900 F10800.000
;AFTER_LAYER_CHANGE
;0.2
G1 X21.726 Y22.261
G1 Z0.200
G1 E1.20000 F2700.00000
M204 S1000
G1 F1200
G1 X22.710 Y21.488 E0.03922
G1 X23.852 Y20.979 E0.03922
G1 X25.090 Y20.763 E0.03940
G1 X72.344 Y20.757 E1.48161
G1 X73.247 Y20.839 E0.02845
G1 X74.117 Y21.078 E0.02828
G1 X74.931 Y21.467 E0.02828
G1 X75.667 Y21.997 E0.02845
G1 X76.298 Y22.649 E0.02845
G1 X76.800 Y23.398 E0.02828
G1 X77.165 Y24.229 E0.02845
G1 X77.374 Y25.106 E0.02828
G1 X77.429 Y25.834 E0.02288
G1 X77.427 Y47.981 E0.69443
G1 X77.229 Y49.261 E0.04061
G1 X76.716 Y50.445 E0.04044
G1 X59.436 Y74.367 E0.92528
G1 X58.871 Y75.012 E0.02688
G1 X58.211 Y75.550 E0.02671
G1 X57.561 Y75.928 E0.02357
G1 X56.862 Y76.205 E0.02357
G1 X56.135 Y76.375 E0.02340
G1 X55.386 Y76.438 E0.02357
G1 X42.104 Y76.433 E0.41645
G1 X40.876 Y76.224 E0.03905
G1 X39.741 Y75.726 E0.03888
G1 X38.917 Y75.117 E0.03210
G1 X38.235 Y74.361 E0.03193
G1 X21.194 Y50.804 E0.91161
G1 X20.545 Y49.563 E0.04390
G1 X20.328 Y48.751 E0.02636
G1 X20.248 Y47.914 E0.02636
G1 X20.248 Y25.770 E0.69433
G1 X20.439 Y24.466 E0.04130
G1 X20.960 Y23.250 E0.04148
G1 X21.689 Y22.309 E0.03734
G1 F8640
G1 X22.710 Y21.488 E-0.38869
G1 X23.852 Y20.979 E-0.37139
G1 X25.090 Y20.763 E-0.37303
G1 X25.113 Y20.763 E-0.00689
G1 E-0.06000 F2700.00000
G1 Z1.100 F10800.000
G1 X60.015 Y52.561
G1 Z0.200
G1 E1.20000 F2700.00000
G1 F1200
G1 X60.015 Y66.176 E0.42689
G1 X60.052 Y66.472 E0.00935
G1 X60.052 Y71.895 E0.17002
G1 X59.403 Y73.817 E0.06363
G1 X58.899 Y74.456 E0.02550
G1 X57.887 Y75.354 E0.04242
G1 X57.071 Y75.763 E0.02862
G1 X55.848 Y76.061 E0.03947
G1 X41.791 Y76.061 E0.44073
G1 X39.868 Y75.412 E0.06363
G1 X39.230 Y74.908 E0.02550
G1 X38.332 Y73.897 E0.04242
G1 X37.923 Y73.080 E0.02862
G1 X37.625 Y71.857 E0.03947
G1 X37.625 Y52.561 E0.60504
G1 X24.628 Y52.535 E0.40750
G1 X23.407 Y52.184 E0.03983
G1 X22.344 Y51.515 E0.03937
G1 X21.458 Y50.572 E0.04058
G1 X20.848 Y49.393 E0.04164
G1 X20.625 Y48.293 E0.03518
G1 X20.625 Y25.301 E0.72090
G1 X21.274 Y23.378 E0.06363
G1 X21.778 Y22.740 E0.02550
G1 X22.789 Y21.841 E0.04242
G1 X23.606 Y21.433 E0.02862
G1 X24.829 Y21.134 E0.03948
G1 X72.825 Y21.138 E1.50487
G1 X73.773 Y21.322 E0.03029
G1 X74.681 Y21.713 E0.03101
G1 X75.900 Y22.736 E0.04990
G1 X76.691 Y23.953 E0.04551
G1 X77.052 Y25.336 E0.04481
G1 X77.052 Y48.395 E0.72298
G1 X76.403 Y50.317 E0.06363
G1 X75.899 Y50.956 E0.02550
G1 X74.887 Y51.854 E0.04242
G1 X74.071 Y52.263 E0.02861
G1 X72.940 Y52.550 E0.03658
G1 X60.075 Y52.561 E0.40338
G1 X59.638 Y52.184 F10800.000
G1 F1200
G1 X59.638 Y66.201 E0.43949
G1 X59.675 Y66.485 E0.00897
G1 X59.675 Y71.864 E0.16866
G1 X59.086 Y73.610 E0.05778
G1 X58.634 Y74.186 E0.02295
G1 X57.694 Y75.029 E0.03960
G1 X56.958 Y75.402 E0.02585
G1 X55.824 Y75.684 E0.03664
G1 X41.822 Y75.684 E0.43904
G1 X40.076 Y75.096 E0.05778
G1 X39.500 Y74.644 E0.02295
G1 X38.656 Y73.703 E0.03960
G1 X38.284 Y72.968 E0.02585
G1 X38.002 Y71.834 E0.03664
G1 X38.002 Y52.184 E0.61611
G1 X24.705 Y52.165 E0.41692
G1 X23.583 Y51.850 E0.03653
G1 X22.601 Y51.237 E0.03629
G1 X21.779 Y50.373 E0.03738
G1 X21.212 Y49.290 E0.03835
G1 X21.002 Y48.274 E0.03253
G1 X21.002 Y25.332 E0.71933
G1 X21.590 Y23.585 E0.05778
G1 X22.042 Y23.009 E0.02295
G1 X22.983 Y22.166 E0.03960
G1 X23.718 Y21.793 E0.02585
G1 X24.852 Y21.511 E0.03664
G1 X72.806 Y21.515 E1.50355
G1 X73.679 Y21.688 E0.02791
G1 X74.505 Y22.047 E0.02823
G1 X75.635 Y23.006 E0.04647
G1 X76.334 Y24.080 E0.04018
G1 X76.675 Y25.361 E0.04157
G1 X76.675 Y48.364 E0.72124
G1 X76.086 Y50.110 E0.05778
G1 X75.634 Y50.686 E0.02295
G1 X74.694 Y51.529 E0.03960
G1 X73.958 Y51.903 E0.02587
G1 X72.870 Y52.178 E0.03518
G1 X59.698 Y52.184 E0.41301
G1 X59.261 Y51.807 F10800.000
G1 F1200
G1 X59.261 Y66.227 E0.45213
G1 X59.298 Y66.498 E0.00857
G1 X59.298 Y71.833 E0.16729
G1 X58.769 Y73.404 E0.05197
G1 X58.369 Y73.918 E0.02043
G1 X57.499 Y74.706 E0.03679
G1 X56.844 Y75.042 E0.02308
G1 X55.801 Y75.307 E0.03376
G1 X41.853 Y75.307 E0.43733
G1 X40.282 Y74.778 E0.05197
G1 X39.767 Y74.378 E0.02043
G1 X38.980 Y73.508 E0.03679
G1 X38.643 Y72.854 E0.02308
G1 X38.379 Y71.810 E0.03376
G1 X38.379 Y51.807 E0.62718
G1 X24.779 Y51.794 E0.42640
G1 X23.757 Y51.514 E0.03324
G1 X22.855 Y50.958 E0.03322
G1 X22.099 Y50.172 E0.03419
G1 X21.575 Y49.185 E0.03504
G1 X21.379 Y48.254 E0.02985
G1 X21.379 Y25.362 E0.71774
G1 X21.907 Y23.791 E0.05197
G1 X22.308 Y23.277 E0.02043
G1 X23.178 Y22.490 E0.03679
G1 X23.832 Y22.153 E0.02308
G1 X24.876 Y21.888 E0.03376
G1 X72.787 Y21.892 E1.50220
G1 X73.584 Y22.053 E0.02550
G1 X74.326 Y22.380 E0.02545
G1 X75.368 Y23.273 E0.04302
G1 X76.001 Y24.258 E0.03669
G1 X76.298 Y25.385 E0.03655
G1 X76.298 Y48.333 E0.71952
G1 X75.769 Y49.904 E0.05197
G1 X75.369 Y50.418 E0.02043
G1 X74.499 Y51.206 E0.03679
G1 X73.844 Y51.542 E0.02308
G1 X72.801 Y51.807 E0.03376
G1 X59.321 Y51.807 E0.42264
G1 X58.884 Y51.430 F10800.000
G1 F1200
G1 X58.884 Y66.254 E0.46480
G1 X58.920 Y66.512 E0.00816
G1 X58.920 Y71.803 E0.16589
G1 X58.451 Y73.199 E0.04619
G1 X58.101 Y73.652 E0.01793
G1 X57.302 Y74.384 E0.03399
G1 X56.728 Y74.683 E0.02030
G1 X55.776 Y74.930 E0.03082
G1 X41.883 Y74.930 E0.43560
G1 X40.487 Y74.461 E0.04619
G1 X40.034 Y74.111 E0.01793
G1 X39.302 Y73.311 E0.03399
G1 X39.003 Y72.737 E0.02030
G1 X38.756 Y71.786 E0.03082
G1 X38.756 Y51.430 E0.63823
G1 X24.852 Y51.424 E0.43595
G1 X23.929 Y51.177 E0.02996
G1 X23.110 Y50.679 E0.03007
G1 X22.390 Y49.931 E0.03255
G1 X21.922 Y49.035 E0.03170
G1 X21.756 Y48.235 E0.02561
G1 X21.756 Y25.393 E0.71619
G1 X22.225 Y23.996 E0.04619
G1 X22.575 Y23.544 E0.01793
G1 X23.375 Y22.812 E0.03399
G1 X23.949 Y22.512 E0.02030
G1 X24.900 Y22.265 E0.03083
G1 X72.767 Y22.269 E1.50082
G1 X73.487 Y22.418 E0.02304
G1 X74.146 Y22.713 E0.02266
G1 X75.101 Y23.540 E0.03960
G1 X75.645 Y24.385 E0.03149
G1 X75.920 Y25.411 E0.03331
G1 X75.920 Y48.303 E0.71777
G1 X75.451 Y49.699 E0.04619
G1 X75.101 Y50.152 E0.01793
G1 X74.302 Y50.884 E0.03399
G1 X73.728 Y51.183 E0.02030
G1 X72.776 Y51.430 E0.03082
G1 X58.944 Y51.430 E0.43370
G1 X58.507 Y51.053 F10800.000
G1 F1200
G1 X58.507 Y66.283 E0.47753
G1 X58.543 Y66.527 E0.00772
G1 X58.543 Y71.772 E0.16446
G1 X58.133 Y72.995 E0.04045
G1 X57.833 Y73.387 E0.01546
G1 X57.102 Y74.063 E0.03121
G1 X56.609 Y74.325 E0.01752
G1 X55.751 Y74.553 E0.02783
G1 X41.914 Y74.553 E0.43385
G1 X40.691 Y74.142 E0.04045
G1 X40.299 Y73.842 E0.01546
G1 X39.623 Y73.112 E0.03121
G1 X39.361 Y72.618 E0.01752
G1 X39.133 Y71.760 E0.02783
G1 X39.133 Y51.053 E0.64927
G1 X24.925 Y51.053 E0.44547
G1 X24.052 Y50.820 E0.02833
G1 X23.363 Y50.399 E0.02534
G1 X22.710 Y49.729 E0.02933
G1 X22.285 Y48.929 E0.02839
G1 X22.133 Y48.214 E0.02292
G1 X22.133 Y25.423 E0.71460
M73 P3 R33
G1 X22.544 Y24.200 E0.04045
G1 X22.843 Y23.809 E0.01546
G1 X23.574 Y23.133 E0.03121
G1 X24.068 Y22.871 E0.01752
G1 X24.926 Y22.643 E0.02783
G1 X72.748 Y22.646 E1.49943
G1 X73.351 Y22.770 E0.01933
G1 X73.966 Y23.045 E0.02110
G1 X74.831 Y23.805 E0.03609
G1 X75.310 Y24.561 E0.02809
G1 X75.543 Y25.435 E0.02835
G1 X75.543 Y48.272 E0.71604
G1 X75.133 Y49.495 E0.04045
G1 X74.833 Y49.887 E0.01546
G1 X74.102 Y50.563 E0.03121
G1 X73.609 Y50.825 E0.01752
G1 X72.751 Y51.053 E0.02783
G1 X58.567 Y51.053 E0.44473
G1 X58.130 Y50.676 F10800.000
G1 F1200
G1 X58.130 Y66.314 E0.49033
G1 X58.166 Y66.543 E0.00726
G1 X58.166 Y71.741 E0.16301
G1 X57.813 Y72.792 E0.03476
G1 X57.563 Y73.123 E0.01301
G1 X56.900 Y73.743 E0.02845
G1 X56.487 Y73.967 E0.01474
G1 X55.725 Y74.176 E0.02477
G1 X41.944 Y74.176 E0.43208
G1 X40.894 Y73.823 E0.03476
G1 X40.563 Y73.572 E0.01301
G1 X39.942 Y72.910 E0.02845
G1 X39.719 Y72.496 E0.01474
G1 X39.510 Y71.735 E0.02477
G1 X39.510 Y50.676 E0.66028
G1 X24.951 Y50.676 E0.45648
G1 X24.180 Y50.464 E0.02508
G1 X23.583 Y50.092 E0.02206
G1 X23.001 Y49.488 E0.02631
G1 X22.631 Y48.779 E0.02505
G1 X22.510 Y48.196 E0.01869
G1 X22.510 Y25.454 E0.71305
G1 X22.863 Y24.403 E0.03476
G1 X23.114 Y24.072 E0.01301
G1 X23.776 Y23.452 E0.02845
G1 X24.189 Y23.228 E0.01474
G1 X24.951 Y23.020 E0.02477
G1 X72.727 Y23.023 E1.49798
G1 X73.252 Y23.135 E0.01681
G1 X73.783 Y23.376 E0.01829
G1 X74.560 Y24.068 E0.03263
G1 X74.955 Y24.689 E0.02306
G1 X75.166 Y25.461 E0.02510
G1 X75.166 Y48.241 E0.71427
G1 X74.813 Y49.292 E0.03476
G1 X74.563 Y49.623 E0.01301
G1 X73.900 Y50.243 E0.02845
G1 X73.487 Y50.467 E0.01474
G1 X72.725 Y50.676 E0.02477
G1 X58.190 Y50.676 E0.45574
G1 X57.753 Y50.299 F10800.000
G1 F1200
G1 X57.753 Y66.347 E0.50319
G1 X57.789 Y66.560 E0.00676
G1 X57.789 Y71.711 E0.16150
G1 X57.493 Y72.591 E0.02912
G1 X57.291 Y72.861 E0.01059
G1 X56.695 Y73.426 E0.02573
G1 X56.362 Y73.611 E0.01196
G1 X55.698 Y73.799 E0.02162
G1 X41.975 Y73.799 E0.43028
G1 X41.095 Y73.503 E0.02912
G1 X40.824 Y73.300 E0.01059
G1 X40.260 Y72.705 E0.02573
G1 X40.075 Y72.371 E0.01196
G1 X39.887 Y71.708 E0.02162
G1 X39.887 Y50.299 E0.67126
G1 X24.978 Y50.299 E0.46746
G1 X24.310 Y50.109 E0.02179
G1 X23.836 Y49.812 E0.01752
G1 X23.320 Y49.285 E0.02313
G1 X22.994 Y48.673 E0.02174
G1 X22.887 Y48.175 E0.01598
G1 X22.887 Y25.485 E0.71144
G1 X23.183 Y24.604 E0.02912
G1 X23.385 Y24.334 E0.01059
G1 X23.981 Y23.769 E0.02573
G1 X24.315 Y23.584 E0.01196
G1 X24.978 Y23.397 E0.02163
G1 X72.706 Y23.400 E1.49648
G1 X73.150 Y23.498 E0.01423
G1 X73.597 Y23.705 E0.01548
G1 X74.288 Y24.330 E0.02920
G1 X74.600 Y24.819 E0.01818
G1 X74.789 Y25.488 E0.02179
G1 X74.789 Y48.211 E0.71246
G1 X74.493 Y49.091 E0.02912
G1 X74.291 Y49.361 E0.01059
G1 X73.695 Y49.926 E0.02573
G1 X73.362 Y50.111 E0.01196
G1 X72.698 Y50.299 E0.02162
G1 X57.813 Y50.299 E0.46673
G1 X57.376 Y49.922 F10800.000
G1 F1200
G1 X57.376 Y66.384 E0.51616
G1 X57.412 Y66.579 E0.00622
G1 X57.412 Y71.680 E0.15994
G1 X57.172 Y72.391 E0.02355
G1 X57.017 Y72.602 E0.00819
G1 X56.487 Y73.111 E0.02305
G1 X56.232 Y73.256 E0.00919
G1 X55.670 Y73.422 E0.01838
G1 X42.006 Y73.422 E0.42843
G1 X41.294 Y73.182 E0.02355
G1 X41.084 Y73.027 E0.00819
G1 X40.575 Y72.497 E0.02305
G1 X40.430 Y72.242 E0.00919
G1 X40.264 Y71.680 E0.01838
G1 X40.264 Y49.922 E0.68221
G1 X25.006 Y49.922 E0.47840
G1 X24.443 Y49.756 E0.01842
G1 X24.088 Y49.530 E0.01318
G1 X23.637 Y49.080 E0.01999
G1 X23.356 Y48.564 E0.01842
G1 X23.264 Y48.153 E0.01318
G1 X23.264 Y25.515 E0.70980
G1 X23.504 Y24.804 E0.02355
G1 X23.659 Y24.594 E0.00819
G1 X24.189 Y24.084 E0.02305
G1 X24.444 Y23.939 E0.00919
G1 X25.006 Y23.774 E0.01838
G1 X72.684 Y23.777 E1.49490
G1 X73.043 Y23.860 E0.01157
G1 X73.409 Y24.033 E0.01268
G1 X74.014 Y24.591 E0.02580
G1 X74.246 Y24.952 E0.01347
G1 X74.412 Y25.516 E0.01841
G1 X74.412 Y48.180 E0.71062
G1 X74.172 Y48.891 E0.02355
G1 X74.017 Y49.102 E0.00819
G1 X73.487 Y49.611 E0.02305
G1 X73.232 Y49.756 E0.00919
G1 X72.670 Y49.922 E0.01838
G1 X57.436 Y49.922 E0.47767
G1 X56.998 Y49.545 F10800.000
G1 F1200
G1 X56.998 Y66.425 E0.52926
G1 X57.035 Y66.600 E0.00562
G1 X57.035 Y71.649 E0.15830
G1 X56.850 Y72.194 E0.01806
G1 X56.741 Y72.344 E0.00580
G1 X56.274 Y72.799 E0.02044
G1 X56.098 Y72.903 E0.00643
G1 X55.641 Y73.045 E0.01500
G1 X42.037 Y73.045 E0.42653
G1 X41.492 Y72.859 E0.01806
G1 X41.342 Y72.751 E0.00580
G1 X40.887 Y72.284 E0.02044
G1 X40.782 Y72.107 E0.00643
G1 X40.641 Y71.650 E0.01500
G1 X40.641 Y49.545 E0.69310
G1 X25.036 Y49.545 E0.48930
G1 X24.580 Y49.404 E0.01496
G1 X24.341 Y49.250 E0.00892
G1 X23.925 Y48.834 E0.01845
G1 X23.702 Y48.412 E0.01496
G1 X23.641 Y48.134 E0.00892
G1 X23.641 Y25.547 E0.70821
G1 X23.827 Y25.001 E0.01806
G1 X23.935 Y24.851 E0.00580
G1 X24.402 Y24.396 E0.02044
G1 X24.579 Y24.292 E0.00643
G1 X25.036 Y24.151 E0.01500
G1 X72.662 Y24.154 E1.49329
G1 X72.900 Y24.210 E0.00767
G1 X73.220 Y24.361 E0.01109
G1 X73.739 Y24.849 E0.02233
G1 X73.894 Y25.090 E0.00898
G1 X74.035 Y25.545 E0.01495
G1 X74.035 Y48.149 E0.70872
G1 X73.850 Y48.694 E0.01806
G1 X73.741 Y48.844 E0.00580
G1 X73.274 Y49.299 E0.02044
G1 X73.098 Y49.403 E0.00643
G1 X72.641 Y49.545 E0.01500
G1 X57.058 Y49.545 E0.48857
G1 X56.621 Y49.167 F10800.000
G1 F1200
G1 X56.621 Y66.472 E0.54257
G1 X56.658 Y66.625 E0.00493
G1 X56.658 Y71.617 E0.15652
G1 X56.526 Y72.000 E0.01270
G1 X56.463 Y72.089 E0.00343
G1 X56.056 Y72.492 E0.01795
G1 X55.955 Y72.554 E0.00371
G1 X55.609 Y72.667 E0.01144
G1 X42.069 Y72.667 E0.42453
G1 X41.686 Y72.535 E0.01270
G1 X41.597 Y72.473 E0.00343
G1 X41.194 Y72.065 E0.01795
G1 X41.132 Y71.965 E0.00371
G1 X41.018 Y71.618 E0.01144
G1 X41.018 Y49.167 E0.70393
G1 X25.068 Y49.167 E0.50013
G1 X24.723 Y49.054 E0.01136
G1 X24.594 Y48.970 E0.00484
G1 X24.214 Y48.590 E0.01687
G1 X24.050 Y48.266 E0.01136
G1 X24.018 Y48.115 E0.00484
G1 X24.018 Y25.578 E0.70662
G1 X24.150 Y25.196 E0.01270
G1 X24.213 Y25.106 E0.00343
G1 X24.620 Y24.704 E0.01795
G1 X24.721 Y24.642 E0.00371
G1 X25.067 Y24.528 E0.01144
G1 X72.640 Y24.532 E1.49160
G1 X72.757 Y24.559 E0.00377
G1 X73.030 Y24.688 E0.00947
G1 X73.461 Y25.105 E0.01880
G1 X73.545 Y25.233 E0.00479
G1 X73.658 Y25.577 E0.01136
G1 X73.658 Y48.117 E0.70672
G1 X73.526 Y48.500 E0.01270
G1 X73.463 Y48.589 E0.00343
G1 X73.056 Y48.992 E0.01795
G1 X72.955 Y49.054 E0.00371
G1 X72.609 Y49.167 E0.01144
G1 X56.681 Y49.167 E0.49939
G1 X56.244 Y48.790 F10800.000
G1 F1200
G1 X56.244 Y66.530 E0.55621
G1 X56.281 Y66.656 E0.00412
G1 X56.281 Y71.583 E0.15449
G1 X56.199 Y71.811 E0.00757
G1 X55.828 Y72.191 E0.01666
G1 X55.574 Y72.290 E0.00856
G1 X42.103 Y72.290 E0.42238
G1 X41.875 Y72.209 E0.00757
G1 X41.495 Y71.838 E0.01666
G1 X41.395 Y71.583 E0.00856
G1 X41.395 Y48.790 E0.71466
G1 X25.103 Y48.790 E0.51085
G1 X24.848 Y48.691 E0.00856
G1 X24.505 Y48.348 E0.01522
G1 X24.402 Y48.129 E0.00757
G1 X24.395 Y25.612 E0.70601
G1 X24.495 Y25.358 E0.00856
G1 X24.848 Y25.005 E0.01566
G1 X25.103 Y24.905 E0.00856
G1 X72.588 Y24.905 E1.48887
M73 P6 R32
G1 X72.838 Y25.015 E0.00856
G1 X73.181 Y25.358 E0.01522
G1 X73.281 Y25.612 E0.00856
G1 X73.281 Y48.083 E0.70457
G1 X73.181 Y48.338 E0.00856
G1 X72.828 Y48.691 E0.01566
G1 X72.574 Y48.790 E0.00856
G1 X56.304 Y48.790 E0.51012
G1 X55.867 Y48.413 F10800.000
G1 F1200
G1 X55.867 Y66.616 E0.57072
G1 X55.904 Y66.704 E0.00300
G1 X55.904 Y71.541 E0.15167
G1 X55.875 Y71.611 E0.00235
G1 X55.601 Y71.885 E0.01215
G1 X55.532 Y71.913 E0.00235
G1 X42.144 Y71.913 E0.41975
G1 X42.075 Y71.885 E0.00235
G1 X41.801 Y71.611 E0.01215
G1 X41.773 Y71.541 E0.00235
G1 X41.773 Y48.413 E0.72516
G1 X25.144 Y48.413 E0.52136
G1 X25.075 Y48.385 E0.00235
G1 X24.801 Y48.111 E0.01215
G1 X24.773 Y48.041 E0.00235
G1 X24.773 Y25.654 E0.70194
G1 X24.801 Y25.585 E0.00235
G1 X25.075 Y25.311 E0.01215
G1 X25.144 Y25.282 E0.00235
G1 X72.532 Y25.282 E1.48580
G1 X72.601 Y25.311 E0.00235
G1 X72.875 Y25.585 E0.01215
G1 X72.904 Y25.654 E0.00235
G1 X72.904 Y48.041 E0.70194
G1 X72.875 Y48.111 E0.00235
G1 X72.601 Y48.385 E0.01215
G1 X72.532 Y48.413 E0.00235
